src/images/header-telegram.svg

<svg width="15" height="13" fill="none" xmlns="http://www.w3.org/2000/svg"><path d="M5.81972 12.0232c-.43781 0-.36342-.1581-.51442-.5568L4.01782 7.41344l9.91048-5.62361" fill="#9399AB"/><path d="M5.81982 12.0232c.33786 0 .48714-.1478.67572-.3232l1.8019-1.6759-2.24765-1.29638" fill="#70788E"/><path d="M6.04945 8.72806l5.44625 3.84874c.6215.328 1.07.1582 1.2248-.5519l2.2169-9.99244c.227-.8704-.3468-1.26517-.9414-1.00699L.978404 5.82666c-.8885738.3409-.8833935.81507-.161968 1.02635l3.340614.99731 7.73385-4.66697c.3651-.21177.7002-.09792.4252.13556" fill="#B6BAC7"/></svg>

<svg width="15" height="13" viewBox="0 0 15 13" fill="none" xmlns="http://www.w3.org/2000/svg">
<path d="M5.81972 12.0232C5.38191 12.0232 5.4563 11.8651 5.3053 11.4664L4.01782 7.41344L13.9283 1.78983" fill="#9399AB"/>
<path d="M5.81982 12.0232C6.15768 12.0232 6.30696 11.8754 6.49554 11.7L8.29744 10.0241L6.04979 8.72772" fill="#70788E"/>
<path d="M6.04945 8.72806L11.4957 12.5768C12.1172 12.9048 12.5657 12.735 12.7205 12.0249L14.9374 2.03246C15.1644 1.16206 14.5906 0.76729 13.996 1.02547L0.978404 5.82666C0.0898302 6.16756 0.0950105 6.64173 0.816436 6.85301L4.15705 7.85032L11.8909 3.18335C12.256 2.97158 12.5911 3.08543 12.3161 3.31891" fill="#B6BAC7"/>
</svg>
